img/2star.svg

<svg width="88" height="16" viewBox="0 0 88 16" fill="none" xmlns="http://www.w3.org/2000/svg">
<path d="M88 6.18173L82.1863 5.79951L79.9968 0.299011L77.8073 5.79951L72 6.18173L76.4542 9.96379L74.9926 15.701L79.9968 12.5378L85.0011 15.701L83.5395 9.96379L88 6.18173Z" fill="#EDEDED"/>
<path d="M70 6.18173L64.1863 5.79951L61.9968 0.299011L59.8073 5.79951L54 6.18173L58.4542 9.96379L56.9926 15.701L61.9968 12.5378L67.0011 15.701L65.5395 9.96379L70 6.18173Z" fill="#EDEDED"/>
<path d="M52 6.18173L46.1863 5.79951L43.9968 0.299011L41.8073 5.79951L36 6.18173L40.4542 9.96379L38.9926 15.701L43.9968 12.5378L49.0011 15.701L47.5395 9.96379L52 6.18173Z" fill="#EDEDED"/>
<path d="M34 6.18173L28.1863 5.79951L25.9968 0.299011L23.8073 5.79951L18 6.18173L22.4542 9.96379L20.9926 15.701L25.9968 12.5378L31.0011 15.701L29.5395 9.96379L34 6.18173Z" fill="#DC780B"/>
<path d="M16 6.18173L10.1863 5.79951L7.99681 0.299011L5.80734 5.79951L0 6.18173L4.45419 9.96379L2.99256 15.701L7.99681 12.5378L13.0011 15.701L11.5395 9.96379L16 6.18173Z" fill="#DC780B"/>
</svg>

<svg xmlns="http://www.w3.org/2000/svg" width="88" height="16" fill="none" xmlns:v="https://vecta.io/nano"><path d="M88 6.182L82.186 5.8 79.996.3l-2.189 5.5L72 6.182l4.454 3.782-1.462 5.737 5.004-3.163L85 15.701l-1.462-5.737L88 6.182zm-18 0L64.186 5.8 61.996.3l-2.19 5.5L54 6.182l4.454 3.782-1.462 5.737 5.004-3.163L67 15.701l-1.462-5.737L70 6.182zm-18 0L46.186 5.8 43.996.3l-2.19 5.5L36 6.182l4.454 3.782-1.462 5.737 5.004-3.163L49 15.701l-1.462-5.737L52 6.182z" fill="#ededed"/><path d="M34 6.182L28.186 5.8 25.997.3l-2.189 5.5L18 6.182l4.454 3.782-1.462 5.737 5.004-3.163L31 15.701l-1.462-5.737L34 6.182zm-18 0L10.186 5.8 7.997.299 5.807 5.8 0 6.182l4.454 3.782-1.462 5.737 5.004-3.163L13 15.701l-1.462-5.737L16 6.182z" fill="#dc780b"/></svg>
